X:219
T: Die verkaufte Muellerin
N: Q0086R
O: Mitteleuropa, Deutschland / Frankreich, Lothringen
R: Ballade, Menschenhandel, Rettung, Hinrichtung
M: 3/4
L: 1/16
K: G
G2G2B2 | d4d4e2d2 | c6
B2d2B2 | G6G2B2d2 | A4z2
G2G2B2 | d6d2e2dd | c6
B2d2B2 | G6G2B2d2 | A4z2
D2D2D2 | c2c2c4A2c2 | B2A2G2

